_site/images/drafts-logo.svg

<svg height="67" viewBox="0 0 67 67" width="67" xmlns="http://www.w3.org/2000/svg"><g fill="#fff" transform="translate(6 6)"><path d="m49.3922152 43.1961076c0 1.548547 1.2553454 2.8038924 2.8038924 2.8038924s2.8038924-1.2553454 2.8038924-2.8038924v-40.39221518c0-1.54854702-1.2553454-2.80389242-2.8038924-2.80389242h-40.3922152c-1.548547 0-2.8038924 1.2553454-2.8038924 2.80389242s1.2553454 2.80389242 2.8038924 2.80389242h37.5883228z"/><path d="m38.666256 16.333744v14.999384c0 .920588.746284 1.666872 1.666872 1.666872s1.666872-.746284 1.666872-1.666872v-16.666256c0-.920588-.746284-1.666872-1.666872-1.666872h-16.666256c-.920588 0-1.666872.746284-1.666872 1.666872s.746284 1.666872 1.666872 1.666872z"/><path d="m40.3922152 14.6077848v37.5883228c0 1.548547 1.2553454 2.8038924 2.8038924 2.8038924s2.8038924-1.2553454 2.8038924-2.8038924v-40.3922152c0-1.548547-1.2553454-2.8038924-2.8038924-2.8038924h-40.39221518c-1.54854702 0-2.80389242 1.2553454-2.80389242 2.8038924s1.2553454 2.8038924 2.80389242 2.8038924z" transform="matrix(-1 0 0 -1 46 64)"/></g></svg>

<?xml version="1.0" encoding="UTF-8"?>
<svg width="67px" height="67px" viewBox="0 0 67 67" version="1.1" xmlns="http://www.w3.org/2000/svg" xmlns:xlink="http://www.w3.org/1999/xlink">
    <!-- Generator: Sketch 49.1 (51147) - http://www.bohemiancoding.com/sketch -->
    <title>drafts-logo</title>
    <desc>Created with Sketch.</desc>
    <defs></defs>
    <g id="drafts-logo" stroke="none" stroke-width="1" fill="none" fill-rule="evenodd">
        <g id="Group" transform="translate(6.000000, 6.000000)" fill="#FFFFFF" fill-rule="nonzero">
            <path d="M49.3922152,43.1961076 C49.3922152,44.7446546 50.6475606,46 52.1961076,46 C53.7446546,46 55,44.7446546 55,43.1961076 L55,2.80389242 C55,1.2553454 53.7446546,0 52.1961076,0 L11.8038924,0 C10.2553454,0 9,1.2553454 9,2.80389242 C9,4.35243944 10.2553454,5.60778484 11.8038924,5.60778484 L49.3922152,5.60778484 L49.3922152,43.1961076 Z" id="Path-2"></path>
            <path d="M38.666256,16.333744 L38.666256,31.333128 C38.666256,32.253716 39.41254,33 40.333128,33 C41.253716,33 42,32.253716 42,31.333128 L42,14.666872 C42,13.746284 41.253716,13 40.333128,13 L23.666872,13 C22.746284,13 22,13.746284 22,14.666872 C22,15.58746 22.746284,16.333744 23.666872,16.333744 L38.666256,16.333744 Z" id="Path-2"></path>
            <path d="M40.3922152,14.6077848 L40.3922152,52.1961076 C40.3922152,53.7446546 41.6475606,55 43.1961076,55 C44.7446546,55 46,53.7446546 46,52.1961076 L46,11.8038924 C46,10.2553454 44.7446546,9 43.1961076,9 L2.80389242,9 C1.2553454,9 0,10.2553454 0,11.8038924 C0,13.3524394 1.2553454,14.6077848 2.80389242,14.6077848 L40.3922152,14.6077848 Z" id="Path-2" transform="translate(23.000000, 32.000000) rotate(-180.000000) translate(-23.000000, -32.000000) "></path>
        </g>
    </g>
</svg>
